img/icon-p2p-brothers.svg

<svg width="130" height="130" viewBox="0 0 130 130" fill="none" xmlns="http://www.w3.org/2000/svg">
<g filter="url(#filter0_d_579_1233)">
<path fill-rule="evenodd" clip-rule="evenodd" d="M60.8654 15.065C57.0135 15.4555 53.0284 16.4408 50.8076 17.5518C47.0576 19.4279 44.4549 22.4528 43.7752 25.7251C43.5329 26.8916 43.4819 26.9552 42.488 27.3345C41.1606 27.8411 39.6978 29.3058 39.1886 30.6377C38.7197 31.8654 38.8002 34.3159 39.3435 35.3524L39.6803 35.995L38.1813 37.4083C37.3069 38.2325 36.3905 39.3683 35.9826 40.1334C35.197 41.6063 34.4798 44.3321 34.2478 46.7264C34.1313 47.929 33.9422 48.545 33.4836 49.2176C32.4396 50.7481 31.2604 53.2876 30.9164 54.7451C30.4441 56.747 30.5016 58.8107 31.152 63.2155C31.7818 67.4826 31.7492 69.6926 31.0315 71.3524C30.4895 72.606 29.9156 73.0874 27.4478 74.3568C23.7092 76.2804 21.3363 78.5981 19.6336 81.9889C18.386 84.4738 17.9796 86.5465 18.1158 89.7346C18.2065 91.864 18.3529 92.7032 18.9336 94.4256L19.641 96.5233L18.7297 98.6467C16.9625 102.764 14.727 111.478 15.0273 113.078C15.2124 114.064 16.036 114.787 17.1417 114.935C17.956 115.044 18.1294 114.978 18.7959 114.303C19.4653 113.624 19.6007 113.254 20.1403 110.623C21.6362 103.331 23.9001 97.6529 26.4926 94.6914C28.5678 92.3204 33.4349 90.2057 38.85 89.3223C39.649 89.1919 41.8434 88.9803 43.7265 88.8523L47.1504 88.6191L48.3741 89.4311C49.9672 90.4879 51.9146 91.3603 54.2719 92.0736C56.2741 92.6793 59.6634 93.3311 60.8388 93.3363C61.2221 93.3378 61.7621 93.3999 62.0388 93.4739L62.5417 93.6086V103.195C62.5417 113.727 62.5716 113.987 63.8541 114.65C64.7092 115.092 65.2913 115.092 66.1464 114.65C67.4289 113.987 67.4588 113.727 67.4588 103.195V93.6086L67.9617 93.4739C68.2384 93.3999 68.7784 93.3378 69.1617 93.3363C70.3371 93.3311 73.7264 92.6793 75.7285 92.0736C78.0859 91.3603 80.0333 90.4879 81.6264 89.4311L82.8501 88.6191L86.274 88.8523C91.4556 89.2048 94.4557 89.7961 97.817 91.1265C100.358 92.1323 101.846 93.0474 103.22 94.4489C105.891 97.1742 108.24 102.845 109.806 110.352C110.527 113.807 110.683 114.186 111.582 114.67C113.007 115.437 114.726 114.574 114.979 112.966C115.241 111.3 113.007 102.693 111.253 98.6051L110.337 96.4695L110.812 95.1985C112.497 90.6983 112.286 85.5996 110.255 81.7367C108.543 78.4806 106.182 76.2223 102.531 74.348C99.2309 72.654 98.7108 71.935 98.4104 68.6508C98.3056 67.5056 98.4216 66.0512 98.8438 63.2155C99.4951 58.841 99.551 57.0183 99.099 54.8878C98.7801 53.3841 97.6179 50.8319 96.5169 49.2176C96.0583 48.545 95.8692 47.929 95.7527 46.7264C95.5207 44.3321 94.8035 41.6063 94.0179 40.1334C93.61 39.3683 92.6936 38.2325 91.8192 37.4083L90.3202 35.995L90.657 35.3524C91.2003 34.3159 91.2808 31.8654 90.8119 30.6377C90.3027 29.3058 88.8399 27.8411 87.5125 27.3345C86.5185 26.9552 86.4676 26.8916 86.2253 25.7251C86.0865 25.0573 85.6826 23.9587 85.3275 23.2842C83.1706 19.1864 78.8134 16.5735 72.3026 15.4738C70.3342 15.1412 62.7768 14.8712 60.8654 15.065ZM71.6974 20.1987C76.7654 21.0683 80.0601 22.9922 81.2159 25.7566C81.394 26.1826 81.5397 26.5847 81.5397 26.6501C81.5397 26.7156 74.097 26.7689 65.0002 26.7689C55.9035 26.7689 48.4608 26.7156 48.4608 26.6501C48.4608 26.5847 48.6065 26.1826 48.7846 25.7566C50.1393 22.5167 54.3998 20.4518 60.9771 19.8481C63.7075 19.5974 69.2495 19.7788 71.6974 20.1987ZM86.1057 32.034C86.2988 32.2272 86.4569 32.5719 86.4569 32.7999C86.4569 33.028 86.2988 33.3727 86.1057 33.5659C85.7915 33.8799 83.5696 33.9168 65.0002 33.9168C46.4309 33.9168 44.209 33.8799 43.8948 33.5659C43.7017 33.3727 43.5436 33.028 43.5436 32.7999C43.5436 32.5719 43.7017 32.2272 43.8948 32.034C44.209 31.7199 46.4309 31.6831 65.0002 31.6831C83.5696 31.6831 85.7915 31.7199 86.1057 32.034ZM86.7961 39.4195C88.219 40.3605 89.3598 41.5424 89.9404 42.6767C90.8143 44.3834 90.7337 44.4487 88.636 43.7305C84.5729 42.3392 79.3076 41.6163 70.7555 41.2761C58.6073 40.7925 47.1504 41.7492 41.3644 43.7305C39.3578 44.4176 39.2785 44.3785 39.8609 42.9856C40.3077 41.9168 41.5891 40.5185 42.9788 39.5832L44.0964 38.8309H65.0014H85.9061L86.7961 39.4195ZM78.9694 46.5151C80.4445 46.7063 81.6767 46.8651 81.7073 46.8675C81.738 46.8702 81.7632 49.1886 81.7632 52.0198V57.1673L80.6122 58.8721C78.4015 62.1462 75.3461 64.5577 73.002 64.879C72.1207 64.9996 71.8753 64.9207 70.6326 64.1182C68.9317 63.0194 67.4765 62.6368 65.0002 62.6368C62.524 62.6368 61.0688 63.0194 59.3679 64.1182C58.1252 64.9207 57.8798 64.9996 56.9985 64.879C54.6544 64.5577 51.599 62.1462 49.3883 58.8721L48.2373 57.1673V52.0446V46.922L48.9637 46.792C49.6918 46.662 53.6296 46.2671 55.7247 46.1143C56.3394 46.0694 61.2174 46.063 66.5648 46.0998C73.7315 46.1494 76.9925 46.2586 78.9694 46.5151ZM43.5474 57.0914C43.5519 67.4184 43.6348 68.1625 45.1153 71.1641C46.1488 73.2596 48.1693 75.8846 49.7978 77.2472L50.9028 78.1717L48.995 81.034L47.0871 83.8962L44.3655 84.0512C39.3679 84.3358 35.1715 85.0772 31.5103 86.3218C29.028 87.1657 25.6421 88.9882 24.2456 90.2321L23.0345 91.311L22.8961 90.6187C22.4811 88.5448 22.96 85.9012 24.1614 83.6375C25.2378 81.6094 26.957 80.0312 29.7499 78.507C32.9092 76.783 33.712 76.1799 34.5701 74.8855C36.4046 72.1172 36.7448 68.6921 35.8311 62.1813C35.2913 58.3358 35.2422 57.564 35.4614 56.3851C35.9728 53.637 37.9406 50.7057 40.1385 49.4177C41.1206 48.8421 42.9893 48.0237 43.376 47.9996C43.4681 47.9938 43.5454 52.0852 43.5474 57.0914ZM89.0625 49.0108C91.7908 50.3228 93.9526 53.2338 94.5391 56.3851C94.7583 57.564 94.7092 58.3358 94.1694 62.1813C93.2557 68.6921 93.5959 72.1172 95.4304 74.8855C96.2717 76.1547 97.2466 76.8992 99.8954 78.2948C100.966 78.8592 102.389 79.7494 103.056 80.2725C105.924 82.5225 107.671 86.8009 107.146 90.2942L106.991 91.3329L105.767 90.243C104.36 88.9895 100.98 87.1684 98.4902 86.3218C94.829 85.0772 90.6326 84.3358 85.635 84.0512L82.9134 83.8962L81.0402 81.0759L79.1667 78.2557L80.869 76.5804C82.7538 74.7253 84.1465 72.8014 85.1393 70.6812C86.3507 68.0939 86.4488 67.0787 86.4531 57.0764L86.4569 47.9589L86.9597 48.1001C87.2365 48.1778 88.1825 48.5875 89.0625 49.0108ZM51.9381 67.9804C53.8915 69.1583 55.9453 69.7218 57.9205 69.6222C59.3755 69.5487 59.7136 69.437 61.204 68.5371C62.8646 67.5344 62.8662 67.5339 65.0002 67.5339C67.1343 67.5339 67.1358 67.5344 68.7965 68.5371C70.2868 69.437 70.625 69.5487 72.08 69.6222C74.8535 69.762 77.7406 68.5885 80.5744 66.1691L81.7581 65.1584L81.6305 65.8995C81.1508 68.6818 79.9519 70.828 77.591 73.13C74.3093 76.3302 69.271 78.8952 65.6846 79.1918C62.0799 79.4898 56.159 76.7864 52.4095 73.13C50.0148 70.7951 48.942 68.8831 48.3378 65.8745L48.1843 65.1088L49.397 66.1441C50.064 66.7137 51.2074 67.54 51.9381 67.9804ZM57.5944 82.1559C62.9511 84.5134 67.0494 84.5134 72.4061 82.1559C73.5574 81.6493 74.6667 81.1834 74.8712 81.1204C75.1477 81.0351 75.655 81.619 76.845 83.3914C77.7258 84.7035 78.4133 85.8065 78.3726 85.842C78.0387 86.1357 76.1811 86.9077 74.6414 87.3924C71.5347 88.3708 69.054 88.7096 65.0002 88.7096C60.9465 88.7096 58.4658 88.3708 55.3591 87.3924C53.8193 86.9077 51.9618 86.1357 51.6279 85.842C51.5872 85.8065 52.2747 84.7035 53.1555 83.3914C54.3455 81.619 54.8528 81.0351 55.1293 81.1204C55.3338 81.1834 56.4431 81.6493 57.5944 82.1559ZM35.0765 103.526C34.1175 104.197 33.9329 105.094 33.9329 109.081C33.9329 111.773 34.0194 112.988 34.2505 113.541C34.579 114.326 35.5674 115 36.3914 115C37.2155 115 38.2038 114.326 38.5324 113.541C38.9765 112.478 38.9812 105.694 38.5384 104.635C38.1368 103.675 37.3892 103.161 36.3914 103.161C35.9545 103.161 35.3626 103.325 35.0765 103.526ZM92.2942 103.526C91.3351 104.197 91.1505 105.094 91.1505 109.081C91.1505 111.773 91.237 112.988 91.4681 113.541C91.7966 114.326 92.785 115 93.6091 115C94.4331 115 95.4215 114.326 95.75 113.541C96.1941 112.478 96.1988 105.694 95.7561 104.635C95.3544 103.675 94.6068 103.161 93.6091 103.161C93.1721 103.161 92.5803 103.325 92.2942 103.526Z" fill="#06FF79"/>
</g>
<defs>
<filter id="filter0_d_579_1233" x="0" y="0" width="130" height="130" filterUnits="userSpaceOnUse" color-interpolation-filters="sRGB">
<feFlood flood-opacity="0" result="BackgroundImageFix"/>
<feColorMatrix in="SourceAlpha" type="matrix" values="0 0 0 0 0 0 0 0 0 0 0 0 0 0 0 0 0 0 127 0" result="hardAlpha"/>
<feOffset/>
<feGaussianBlur stdDeviation="7.5"/>
<feComposite in2="hardAlpha" operator="out"/>
<feColorMatrix type="matrix" values="0 0 0 0 0.0463889 0 0 0 0 0.695833 0 0 0 0 0.346333 0 0 0 0.8 0"/>
<feBlend mode="normal" in2="BackgroundImageFix" result="effect1_dropShadow_579_1233"/>
<feBlend mode="normal" in="SourceGraphic" in2="effect1_dropShadow_579_1233" result="shape"/>
</filter>
</defs>
</svg>

<svg width="130" height="130" fill="none" xmlns="http://www.w3.org/2000/svg"><g filter="url(#filter0_d_579_1233)"><path fill-rule="evenodd" clip-rule="evenodd" d="M60.865 15.065c-3.852.39-7.837 1.376-10.057 2.487-3.75 1.876-6.353 4.9-7.033 8.173-.242 1.167-.293 1.23-1.287 1.61-1.327.506-2.79 1.97-3.3 3.303-.468 1.227-.388 3.678.155 4.714l.337.643-1.499 1.413c-.874.825-1.79 1.96-2.198 2.725-.786 1.473-1.503 4.2-1.735 6.593-.117 1.203-.306 1.819-.764 2.492-1.044 1.53-2.224 4.07-2.568 5.527-.472 2.002-.414 4.066.236 8.47.63 4.268.597 6.478-.12 8.137-.543 1.254-1.116 1.735-3.584 3.005-3.739 1.923-6.112 4.241-7.814 7.632-1.248 2.485-1.654 4.557-1.518 7.746.09 2.129.237 2.968.818 4.69l.707 2.098-.911 2.124c-1.768 4.117-4.003 12.831-3.703 14.431.185.986 1.009 1.709 2.115 1.857.814.109.987.043 1.654-.632.67-.679.805-1.049 1.344-3.68 1.496-7.292 3.76-12.97 6.353-15.932 2.075-2.37 6.942-4.485 12.357-5.369.799-.13 2.993-.342 4.877-.47l3.423-.233 1.224.812c1.593 1.057 3.54 1.93 5.898 2.643 2.002.605 5.391 1.257 6.567 1.262.383.002.923.064 1.2.138l.503.135v9.586c0 10.532.03 10.792 1.312 11.455.855.442 1.437.442 2.292 0 1.283-.663 1.313-.923 1.313-11.455v-9.586l.503-.135c.276-.074.816-.136 1.2-.138 1.175-.005 4.564-.657 6.566-1.262 2.358-.714 4.305-1.586 5.898-2.643l1.224-.812 3.424.233c5.182.353 8.182.944 11.543 2.274 2.541 1.006 4.029 1.921 5.403 3.323 2.671 2.725 5.02 8.396 6.586 15.903.721 3.455.877 3.834 1.776 4.318a2.314 2.314 0 003.397-1.704c.262-1.666-1.972-10.273-3.726-14.36l-.916-2.136.475-1.272c1.685-4.5 1.474-9.598-.557-13.461-1.712-3.256-4.073-5.515-7.724-7.389-3.3-1.694-3.82-2.413-4.12-5.697-.105-1.145.01-2.6.433-5.435.651-4.375.707-6.198.255-8.328-.319-1.504-1.481-4.056-2.582-5.67-.459-.673-.648-1.289-.764-2.492-.232-2.394-.95-5.12-1.735-6.593-.408-.765-1.324-1.9-2.199-2.725l-1.499-1.413.337-.643c.543-1.036.624-3.487.155-4.714-.51-1.332-1.972-2.797-3.3-3.304-.993-.379-1.044-.442-1.287-1.609-.138-.668-.542-1.766-.897-2.44-2.157-4.099-6.515-6.712-13.025-7.811-1.969-.333-9.526-.603-11.438-.409zm10.832 5.134c5.068.87 8.363 2.793 9.519 5.558.178.426.324.828.324.893 0 .066-7.443.119-16.54.119-9.096 0-16.54-.053-16.54-.119 0-.065.146-.467.325-.893 1.354-3.24 5.615-5.305 12.192-5.909 2.73-.25 8.273-.07 10.72.35zm14.409 11.835c.193.193.35.538.35.766 0 .228-.157.573-.35.766-.314.314-2.536.35-21.106.35s-20.791-.036-21.105-.35c-.193-.193-.351-.538-.351-.766 0-.228.158-.573.35-.766.315-.314 2.537-.35 21.106-.35 18.57 0 20.791.036 21.106.35zm.69 7.386c1.423.94 2.564 2.122 3.144 3.257.874 1.706.794 1.772-1.304 1.053-4.063-1.39-9.328-2.114-17.88-2.454-12.149-.484-23.606.473-29.392 2.454-2.006.688-2.085.649-1.503-.744.447-1.07 1.728-2.467 3.118-3.403l1.117-.752h41.81l.89.588zm-7.827 7.095c1.476.191 2.708.35 2.738.352.031.003.056 2.322.056 5.153v5.147l-1.15 1.705c-2.212 3.274-5.267 5.686-7.611 6.007-.881.12-1.127.042-2.37-.76-1.7-1.1-3.156-1.482-5.632-1.482-2.476 0-3.931.382-5.632 1.481-1.243.803-1.488.882-2.37.761-2.344-.321-5.399-2.733-7.61-6.007l-1.15-1.705V46.922l.726-.13c.728-.13 4.666-.525 6.76-.678.615-.045 5.493-.051 10.84-.014 7.168.05 10.429.159 12.405.415zM43.547 57.091c.005 10.327.088 11.071 1.568 14.073 1.034 2.096 3.054 4.72 4.683 6.083l1.105.925-1.908 2.862-1.908 2.862-2.722.155c-4.997.285-9.194 1.026-12.855 2.27-2.482.845-5.868 2.667-7.264 3.911l-1.211 1.079-.139-.692c-.415-2.074.064-4.718 1.265-6.981 1.077-2.029 2.796-3.607 5.589-5.131 3.16-1.724 3.962-2.327 4.82-3.622 1.835-2.768 2.175-6.193 1.261-12.704-.54-3.845-.589-4.617-.37-5.796.512-2.748 2.48-5.68 4.678-6.967.982-.576 2.85-1.394 3.237-1.418.092-.006.17 4.085.171 9.091zm45.516-8.08c2.728 1.312 4.89 4.223 5.476 7.374.22 1.179.17 1.95-.37 5.796-.913 6.511-.573 9.936 1.261 12.704.842 1.27 1.817 2.014 4.465 3.41 1.071.564 2.494 1.454 3.161 1.977 2.868 2.25 4.615 6.529 4.09 10.022l-.155 1.039-1.224-1.09c-1.407-1.253-4.787-3.075-7.277-3.921-3.661-1.245-7.857-1.986-12.855-2.27l-2.722-.156-1.873-2.82-1.873-2.82 1.702-1.676c1.885-1.855 3.278-3.779 4.27-5.899 1.212-2.587 1.31-3.602 1.314-13.605l.004-9.117.503.141c.277.078 1.223.487 2.103.91zM51.938 67.98c1.953 1.177 4.007 1.74 5.982 1.641 1.456-.073 1.794-.185 3.284-1.085 1.66-1.003 1.662-1.003 3.796-1.003s2.136 0 3.796 1.003c1.49.9 1.829 1.012 3.284 1.085 2.773.14 5.66-1.034 8.494-3.453l1.184-1.01-.127.74c-.48 2.783-1.68 4.929-4.04 7.231-3.282 3.2-8.32 5.765-11.906 6.062-3.605.298-9.526-2.406-13.276-6.062-2.394-2.335-3.467-4.247-4.071-7.255l-.154-.766 1.213 1.035c.667.57 1.81 1.396 2.541 1.836zm5.656 14.175c5.357 2.357 9.455 2.357 14.812 0 1.151-.507 2.26-.973 2.465-1.036.277-.085.784.499 1.974 2.271.88 1.313 1.568 2.415 1.528 2.451-.334.294-2.192 1.066-3.732 1.55-3.106.979-5.587 1.318-9.64 1.318-4.055 0-6.535-.34-9.642-1.318-1.54-.484-3.397-1.256-3.731-1.55-.04-.035.647-1.138 1.528-2.45 1.19-1.773 1.697-2.357 1.973-2.272.205.063 1.314.53 2.465 1.036zm-22.517 21.37c-.96.671-1.144 1.568-1.144 5.555 0 2.692.086 3.907.318 4.46.328.785 1.316 1.459 2.14 1.459.825 0 1.813-.674 2.141-1.459.445-1.063.45-7.847.006-8.906-.401-.96-1.149-1.474-2.147-1.474-.436 0-1.028.164-1.314.365zm57.217 0c-.959.671-1.144 1.568-1.144 5.555 0 2.692.087 3.907.318 4.46.329.785 1.317 1.459 2.141 1.459.824 0 1.813-.674 2.141-1.459.444-1.063.449-7.847.006-8.906-.402-.96-1.15-1.474-2.147-1.474-.437 0-1.029.164-1.315.365z" fill="#06FF79"/></g><defs><filter id="filter0_d_579_1233" x="0" y="0" width="130" height="130" filterUnits="userSpaceOnUse" color-interpolation-filters="sRGB"><feFlood flood-opacity="0" result="BackgroundImageFix"/><feColorMatrix in="SourceAlpha" values="0 0 0 0 0 0 0 0 0 0 0 0 0 0 0 0 0 0 127 0" result="hardAlpha"/><feOffset/><feGaussianBlur stdDeviation="7.5"/><feComposite in2="hardAlpha" operator="out"/><feColorMatrix values="0 0 0 0 0.0463889 0 0 0 0 0.695833 0 0 0 0 0.346333 0 0 0 0.8 0"/><feBlend in2="BackgroundImageFix" result="effect1_dropShadow_579_1233"/><feBlend in="SourceGraphic" in2="effect1_dropShadow_579_1233" result="shape"/></filter></defs></svg>
